modules/hawcons-stroke/icons/icon-91-inbox-document-text.svg

<?xml version="1.0" encoding="UTF-8" standalone="no"?>
<svg width="32px" height="32px" viewBox="0 0 32 32" version="1.1" xmlns="http://www.w3.org/2000/svg" xmlns:xlink="http://www.w3.org/1999/xlink" xmlns:sketch="http://www.bohemiancoding.com/sketch/ns">
    <!-- Generator: Sketch 3.0.3 (7891) - http://www.bohemiancoding.com/sketch -->
    <title>icon 91 inbox document text</title>
    <desc>Created with Sketch.</desc>
    <defs></defs>
    <g id="Page-1" stroke="none" stroke-width="1" fill="none" fill-rule="evenodd" sketch:type="MSPage">
        <g id="icon-91-inbox-document-text" sketch:type="MSArtboardGroup" fill="#929292">
            <path d="M22,20 L28,20 L28,27 L5,27 L5,20 L11,20 L11,21.5 C11,22.8807119 12.1152735,24 13.4960703,24 L19.5039297,24 C20.8824713,24 22,22.8903379 22,21.5 L22,20 L22,20 L22,20 Z M4,19.5 L4,19 L7,14.2 L7,6.00494659 C7,4.89702623 7.89666625,4 9.00276013,4 L20,4 L26,11 L26,11.5 L26,14.2 L29,19 L29,28 L4,28 L4,19.5 L4,19.5 Z M7,19 L7,16.1599609 L5.22497559,19 L7,19 L7,19 L7,19 Z M26,19 L26,16.1599609 L27.7750244,19 L26,19 L26,19 L26,19 Z M8,19 L8,6.00307055 C8,5.43891776 8.44573523,5 8.9955775,5 L19,5 L19,9.99408095 C19,11.1134452 19.8944962,12 20.9979131,12 L25,12 L25,19 L8,19 L8,19 Z M20,5.5 L20,9.99121523 C20,10.5483517 20.4506511,11 20.9967388,11 L24.6999512,11 L20,5.5 L20,5.5 Z M12,20 L12,21.5 C12,22.3284271 12.6764628,23 13.5063976,23 L19.4936024,23 C20.3255628,23 21,22.3342028 21,21.5 L21,20 L12,20 L12,20 Z M10,15 L10,16 L23,16 L23,15 L10,15 L10,15 Z M10,7 L10,8 L17,8 L17,7 L10,7 L10,7 Z M10,11 L10,12 L17,12 L17,11 L10,11 L10,11 Z" id="inbox-document-text" sketch:type="MSShapeGroup"></path>
        </g>
    </g>
</svg>

<svg width="32" height="32" viewBox="0 0 32 32" xmlns="http://www.w3.org/2000/svg"><path d="M22 20h6v7H5v-7h6v1.5c0 1.38 1.115 2.5 2.496 2.5h6.008A2.492 2.492 0 0 0 22 21.5V20zm-18-.5V19l3-4.8V6.005C7 4.897 7.897 4 9.003 4H20l6 7v3.2l3 4.8v9H4v-8.5zm3-.5v-2.84L5.225 19H7zm19 0v-2.84L27.775 19H26zM8 19V6.003A.993.993 0 0 1 8.996 5H19v4.994c0 1.12.894 2.006 1.998 2.006H25v7H8zM20 5.5v4.491c0 .557.45 1.009.997 1.009H24.7L20 5.5zM12 20v1.5c0 .828.676 1.5 1.506 1.5h5.988A1.5 1.5 0 0 0 21 21.5V20h-9zm-2-5v1h13v-1H10zm0-8v1h7V7h-7zm0 4v1h7v-1h-7z" fill="#929292" fill-rule="evenodd"/></svg>
